X: 22972
T: Lass Of Carracastle, The
R: reel
M: 4/4
K: Dmajor
A2 dB A2 FA|(3Bcd AF GE E2|FD D2 FA A2|(3Bcd eg fddB|
ADFA (3Bcd AF|DFAF GE E2|FD D2 FA A2|(3Bcd eg fdde||
faaf g2 ef|gfed cA A2|faaf g2 (3efg|abag fdde|
fgaf gbef|gfed cAA2|BGBd cdec|dfag fddB||

